packages/core/src/svgs/iq.svg

<svg width="24" height="24" viewBox="0 0 24 24" fill="none" xmlns="http://www.w3.org/2000/svg">
<g clip-path="url(#clip0_31_11913)">
<path d="M0 0H24V24H0V0Z" fill="#F0F3FA"/>
<path d="M10.543 5.22449C8.79611 5.6374 7.27164 6.69916 6.27868 8.1945C5.79718 8.91075 5.46083 9.71449 5.28868 10.5602C5.14281 11.3327 5.10818 12.1222 5.18582 12.9045C5.39949 14.6358 6.26738 16.2198 7.61154 17.3316C8.32725 17.9359 9.13296 18.3859 9.13296 18.1759C9.13296 18.1459 9.04725 18.0431 8.94439 17.9359C8.24154 17.2502 7.87296 16.0374 8.01868 14.9145C8.21582 13.4145 8.82011 12.4159 9.99868 11.6402C10.2215 11.4902 10.4273 11.3702 10.4487 11.3702C10.5344 11.3702 10.483 11.1988 10.2687 10.7788C9.90264 10.1551 9.71026 9.4448 9.71154 8.72164C9.71289 7.61135 10.1286 6.54154 10.8773 5.72164C11.083 5.52021 11.1087 5.47735 11.1087 5.31449C11.1087 5.15164 11.1001 5.14307 10.9973 5.14307C10.9287 5.14307 10.7273 5.18164 10.543 5.22449Z" fill="#388CE0"/>
<path d="M14.7257 5.66163C14.7257 5.69591 14.79 5.81163 14.8671 5.91877C15.2301 6.43307 15.4342 7.0425 15.4543 7.67163C15.4929 8.4602 15.2829 9.14591 14.8971 9.49305C14.61 9.7502 14.3657 9.75877 14.01 9.53163C13.7614 9.36877 13.7314 9.24877 13.8986 9.03448C14.2096 8.58913 14.3702 8.05609 14.3571 7.51305C14.3571 6.90877 14.2414 6.5702 13.9286 6.27877C13.7851 6.12919 13.6033 6.02205 13.4029 5.96912C13.2025 5.9162 12.9915 5.91954 12.7929 5.97877C12.33 6.08591 11.8929 6.59163 11.6571 7.29877C11.5371 7.66305 11.4343 8.28877 11.4343 8.65305C11.4386 9.33877 11.64 10.1445 11.9357 10.6373C12.1586 10.9842 12.4332 11.2949 12.75 11.5588C12.8357 11.6273 12.9171 11.6959 12.9171 11.7088C12.9171 11.7259 12.8314 11.7688 12.7243 11.8116C11.9357 12.1073 11.1386 12.9988 10.7871 13.9802C10.5743 14.5285 10.4794 15.1156 10.5086 15.7031C10.5386 16.4231 10.6671 16.7616 11.07 17.2031C11.3871 17.5545 11.9871 17.7173 12.7071 17.6445C13.5386 17.5588 14.1771 17.2588 14.7214 16.6845C14.9614 16.4273 15.0086 16.3973 15.0557 16.4531C15.0986 16.5045 15.09 16.5431 15.0043 16.6931C14.46 17.6316 13.4486 18.4331 12.51 18.6688C12.3043 18.7202 12.2186 18.7631 12.2186 18.8059C12.2186 18.9559 13.4957 18.7502 14.2714 18.4716C15.2628 18.1088 16.1604 17.5287 16.8983 16.7737C17.6362 16.0188 18.1957 15.1082 18.5357 14.1088C18.8057 13.2859 18.8529 12.9602 18.8571 11.9359C18.8571 11.1388 18.8486 10.9502 18.7671 10.5473C18.561 9.54034 18.1359 8.59101 17.5219 7.76668C16.9079 6.94234 16.1201 6.26317 15.2143 5.77734C14.8886 5.59305 14.7257 5.55448 14.7257 5.66163Z" fill="#094B89"/>
</g>
<defs>
<clipPath id="clip0_31_11913">
<rect width="24" height="24" fill="white"/>
</clipPath>
</defs>
</svg>

<svg xmlns="http://www.w3.org/2000/svg" width="24" height="24" fill="none" viewBox="0 0 24 24"><g clip-path="url(#a)"><path fill="#F0F3FA" d="M0 0h24v24H0z"/><path fill="#388CE0" d="M10.543 5.224a7.07 7.07 0 0 0-4.264 2.97 6.6 6.6 0 0 0-.99 2.366 8.3 8.3 0 0 0-.103 2.345 6.83 6.83 0 0 0 2.426 4.427c.715.604 1.521 1.054 1.521.844 0-.03-.086-.133-.189-.24-.702-.686-1.071-1.899-.925-3.021.197-1.5.801-2.5 1.98-3.275.223-.15.428-.27.45-.27.085 0 .034-.171-.18-.591a4.05 4.05 0 0 1-.557-2.057 4.46 4.46 0 0 1 1.165-3c.206-.202.232-.245.232-.408s-.009-.17-.112-.17c-.068 0-.27.038-.454.08"/><path fill="#094B89" d="M14.726 5.662c0 .034.064.15.141.257.363.514.567 1.124.587 1.753.039.788-.171 1.474-.557 1.821-.287.257-.531.266-.887.039-.249-.163-.279-.283-.111-.498a2.55 2.55 0 0 0 .458-1.521c0-.604-.116-.943-.428-1.234a1.13 1.13 0 0 0-1.136-.3c-.463.107-.9.613-1.136 1.32-.12.364-.223.99-.223 1.354.005.686.206 1.492.502 1.984.223.347.497.658.814.922a1 1 0 0 1 .167.15c0 .017-.086.06-.193.103-.788.295-1.585 1.187-1.937 2.168a4.2 4.2 0 0 0-.278 1.723c.03.72.158 1.059.561 1.5.317.352.917.514 1.637.442.832-.086 1.47-.386 2.014-.96.24-.258.288-.288.335-.232.043.052.034.09-.052.24-.544.939-1.555 1.74-2.494 1.976-.206.051-.291.094-.291.137 0 .15 1.277-.056 2.052-.334a7.07 7.07 0 0 0 4.265-4.363c.27-.823.317-1.149.321-2.173 0-.797-.008-.986-.09-1.389a7 7 0 0 0-3.553-4.77q-.488-.276-.488-.115"/></g><defs><clipPath id="a"><path fill="#fff" d="M0 0h24v24H0z"/></clipPath></defs></svg>
